X:1
T:Dreher
R:dreher
A:Kuhlaendchen
%%textfont Helvetica-Narrow 10pt
%%begintext align
S:Noten-ausdruck von Ernst Kainzmeier, dort in F, mit dem vermerk: gelernt von Thomas Spurny auf Schloss Freiberg 2000 
%%endtext
F:http://simonwascher.info
Z:abc transcription Simon Wascher
M:4/4
L:1/8
K:F
F2G2 AcAF | GBGE FAcC | F2G2 AcAF | GBGE F3 C :|
|: \
B2BB AcAF | GBGE FAcC | B2BB AcAF |1 GBGE F2C2 :|\
                                  [2 GBGE F4 :|
%%wordsfont Times-Italic 11pt
W:aus Simon Waschers TradArchiv
